**kern	**silbe
*ICvox	*
*B:	*
*M4/4	*
*clefG2	*
r;	.
=1	=1
1r	.
=2	=2
1r	.
=3	=3
1r	.
=4	=4
1r	.
=5	=5
1r	.
=6	=6
1r	.
=7	=7
1r	.
=8	=8
1r	.
=9	=9
1r	.
=10	=10
1r	.
=11	=11
8r	.
16e	Why
16e	are
8e	you
8e	in
8e	so
8d#	much
8c#	hur-
8B	-ry
=12	=12
8r	.
16e	Is
16e	it
8e	real-
8e	-ly
8e	worth
8d#	the
8B	wor-
8[c#	-ry
=13	=13
8c#]	_
8c#	Look
8c#	a-
8[B	-round
8B]	_
16A#	_
16F#	_
4r	.
=14	=14
8r	.
8c#	Then
8c#	slow
8[B	down
8B]	_
16A#	_
16F#	_
4r	.
=15	=15
8r	.
16e	What's
16e	it
8e	like
8e	in-
8e	-side
8d#	the
8c#	bub-
8B	-ble
=16	=16
8r	.
16e	Does
16e	your
8e	head
16e	e-
16e	-ver
8e	give
8d#	you
8B	trou-
8c#	-ble
=17	=17
8r	.
8B	It's
8c#	no
8[B	sin
8B]	_
16A#	_
16F#	_
4r	.
=18	=18
8r	.
8c#	Trade
8c#	it
8[B	in
8B]	_
16A#	_
16F#	_
4r	.
=19	=19
4.f	Hang
8[e	on,
8e]	_
8r	.
4r	.
=20	=20
8f	help
16f	is
16[f	on
8f]	_
8g	its
4e	way
4r	.
=21	=21
8f	I'll
16f	be
16[f	there
8f]	_
8g	as
8e	fast
8d	as
8c	I
8[e	can
=22	=22
8e]	_
8[d	_
4d]	_
2r	.
=23	=23
4.f	Hang
8[e	on,
8e]	_
8r	.
8r	.
8G	a
=24	=24
8f	ti-
16f	-ny
16[f	voice
8f]	_
8g	did
4e	say
8r	.
8G	From
=25	=25
8f	some-
8f	-where
8f	deep
8g	in-
8e	-side
16d	the
16[d	in-
16d]	_
16c	-ner
8[e	man
=26	=26
8e]	_
8[d	_
4d]	_
2r	.
=27	=27
8r	.
16e	Are
16e	you
8e	al-
8e	-ways
8e	in
8d#	con-
8c#	-fu-
8B	-sion
=28	=28
8r	.
16e	Sur-
16[e	-roun-
8e]	_
8e	-ded
8e	by
8d#	il-
8B	-lu-
8c#	-sion
=29	=29
8r	.
8c#	Sort
8c#	it
8[B	out
8B]	_
16A#	_
16F#	_
4r	.
=30	=30
8r	.
8c#	You'll
8c#	make
8[B	out
8B]	_
16A#	_
16F#	_
4r	.
=31	=31
8r	.
16e	Seem
16e	to
8e	make
16e	a
16e	good
8r	.
8d#	be-
8c#	-gin-
8B	-ning
=32	=32
8r	.
16e	Some-
16e	-one
8.e	else
16[e	ends
8e]	_
8d#	up
8B	win-
8c#	-ning
=33	=33
8r	.
8c#	Don't
8c#	seem
8[B	fair
8B]	_
16A#	_
16F#	_
4r	.
=34	=34
8r	.
8c#	Don't
8c#	you
8[B	care
8B]	_
16A#	_
16F#	_
4r	.
=35	=35
4.f	Hang
8[e	on,
8e]	_
8r	.
4r	.
=36	=36
8f	help
16f	is
16[f	on
8f]	_
8g	its
4e	way
4r	.
=37	=37
8f	I'll
16f	be
16[f	there
8f]	_
8g	as
8e	fast
8d	as
8c	I
8[e	can
=38	=38
8e]	_
8[d	_
4d]	_
2r	.
=39	=39
4.f	Hang
8[e	on,
8e]	_
8r	.
8.r	.
16G	a
=40	=40
8f	ti-
16f	-ny
16[f	voice
8f]	_
8g	did
4e	say
8r	.
8G	From
=41	=41
8f	some-
8f	-where
8f	deep
8g	in-
8e	-side
16d	the
16[d	in-
16d]	_
16c	-ner
8[e	man
=42	=42
8e]	_
8[d	_
4d_	_
4d_	_
8d]	_
8r	.
=43	=43
1r	.
=44	=44
1r	.
=45	=45
1r	.
=46	=46
1r	.
=47	=47
8c#	Don't
8c#	you
8d	for-
8c#	-get
4r	.
8B	who'll
8A	take
=48	=48
4c#	care
8d	of
8[c#	you
8c#]	_
8r	.
4r	.
=49	=49
8c#	It
4c#	don't
4c#	mat-
8B	-ter
4r	.
=50	=50
8c#	what
4B	you
8[B	do
8B]	_
16A#	_
16F#	_
4r	.
=51	=51
8c#	Form
8B	a
8A	du-
8G#	-et,
4F#	_
8F#	let
8F#	him
=52	=52
8c#	sing
8c#	me-
8d	-lo-
8[c#	-dy
4c#]	_
4r	.
=53	=53
4c#	You'll
8B	pro-
8B	-vide
4.A	_
8A	the
=54	=54
4c#	har-
8B	-mo-
8[B	-ny
4B]	_
4r	.
=55	=55
1r	.
=56	=56
1r	.
=57	=57
1r	.
=58	=58
1r	.
=59	=59
1r	.
=60	=60
1r	.
=61	=61
1r	.
=62	=62
1r	.
=63	=63
1r	.
=64	=64
1r	.
=65	=65
8r	.
16e	Why
16e	are
8e	you
8e	in
8e	so
8d#	much
8c#	hur-
8B	-ry
=66	=66
8r	.
16e	Is
16e	it
8e	real-
8e	-ly
8e	worth
8d#	the
8B	wor-
8[c#	-ry
=67	=67
8c#]	_
8c#	Look
8c#	a-
8[B	-round
8B]	_
16A#	_
16F#	_
4r	.
=68	=68
8r	.
8c#	Then
8c#	slow
8[B	down
8B]	_
16A#	_
16F#	_
4r	.
=69	=69
8r	.
16e	What's
16e	it
8e	like
8e	in-
8.e	-side
16f#	the
8c#	bub-
8B	-ble
=70	=70
8r	.
16e	Does
16e	your
8e	head
16e	e-
16e	-ver
8e	give
8d#	you
8B	trou-
8c#	-ble
=71	=71
8r	.
8B	It's
8c#	no
8[B	sin
8B]	_
16A#	_
16F#	_
4r	.
=72	=72
8r	.
8c#	Trade
8c#	it
8[B	in
8B]	_
16A#	_
16F#	_
4r	.
=73	=73
4.f	Hang
8[e	on,
8e]	_
8r	.
4r	.
=74	=74
8f	help
16f	is
16[f	on
8f]	_
8g	its
4e	way
4r	.
=75	=75
8f	I'll
16f	be
16[f	there
8f]	_
8f	as
6g	fast
6e	as
6c	I
=76	=76
4e	can
4[d	_
2d]	_
=77	=77
4.f	Hang
8[e	on,
8e]	_
8r	.
8.r	.
16G	a
=78	=78
8f	ti-
16f	-ny
16[f	voice
8f]	_
8g	did
4e	say
8r	.
8G	From
=79	=79
8f	some-
8f	-where
8f	deep
8g	in-
8e	-side
16d	the
16[d	in-
16d]	_
16c	-ner
8[e	man
=80	=80
8e]	_
8[d	_
4d]	_
2r	.
=81	=81
4.f	Hang
8e	on,
8r	.
8r	.
4r	.
=82	=82
8f	help
16f	is
16[f	on
8f]	_
8e	its
4e	way
4r	.
=83	=83
8f	I'll
16f	be
16[f	there
8f]	_
8f	as
6g	fast
6e	as
6c	I
=84	=84
4e	can
4[d	_
4d]	_
4r	.
=85	=85
4.f	Hang
8[e	on,
8e]	_
8r	.
8.r	.
16G	a
=86	=86
8f	ti-
16f	-ny
16[f	voice
8f]	_
8g	did
4e	say
8r	.
8G	From
=87	=87
8f	some-
8f	-where
8f	deep
8g	in-
8e	-side
16d	the
16[d	in-
16d]	_
16c	-ner
8[e	man
=88	=88
8e]	_
8[d	_
4d_	_
4.d]	_
8r	.
=89	=89
1r	.
=90	=90
1r	.
=91	=91
1r	.
=92	=92
1r	.
=93	=93
1[B	Aah
=94	=94
2.B]	_
4c#	Aah
=95	=95
2.A#	ah
4r	.
=96	=96
8c#	Help
16c#	is
16[c#	on
16c#]	_
16B	its
8[d#	way
8d#]	_
8c#	_
4r	.
=97	=97
1[B	Aah
=98	=98
2.B]	_
4c#	Aah
=99	=99
2.A#	ah
4r	.
=100	=100
8c#	Help
16c#	is
16[c#	on
16c#]	_
16B	its
8[d#	way
8d#]	_
8c#	_
4r	.
=101	=101
1r	.
=102	=102
1r	.
=103	=103
1r	.
=104	=104
1r	.
=105	=105
1r	.
=106	=106
1r	.
=107	=107
1r	.
=108	=108
1r	.
r;	.
r;	.
*-	*-
!!!ENC: Nathaniel Condit-Schultz